assets/images/bi.svg

<?xml version="1.0" encoding="UTF-8"?>
<svg xmlns="http://www.w3.org/2000/svg" xmlns:xlink="http://www.w3.org/1999/xlink" width="px" height="px" viewBox="0 0 500 300" version="1.1">
<g id="surface1">
<rect x="0" y="0" width="500" height="300" style="fill:rgb(80.784314%,6.666667%,14.901961%);fill-opacity:1;stroke:none;"/>
<path style="fill-rule:nonzero;fill:rgb(11.764706%,70.980392%,22.745098%);fill-opacity:1;stroke-width:8;stroke-linecap:butt;stroke-linejoin:miter;stroke:rgb(100%,100%,100%);stroke-opacity:1;stroke-miterlimit:4;" d="M -60 -36 L -60 36 L 60 -36 L 60 36 Z M -60 -36 " transform="matrix(5,0,0,5,250,150)"/>
<path style=" stroke:none;fill-rule:nonzero;fill:rgb(100%,100%,100%);fill-opacity:1;" d="M 335 150 C 335 196.945312 296.945312 235 250 235 C 203.054688 235 165 196.945312 165 150 C 165 103.054688 203.054688 65 250 65 C 296.945312 65 335 103.054688 335 150 Z M 335 150 "/>
<path style="fill-rule:nonzero;fill:rgb(80.784314%,6.666667%,14.901961%);fill-opacity:1;stroke-width:0.36;stroke-linecap:butt;stroke-linejoin:miter;stroke:rgb(11.764706%,70.980392%,22.745098%);stroke-opacity:1;stroke-miterlimit:4;" d="M 1.05 -10.620312 L 3.15 -10.620312 L 2.1 -8.8 L 3.15 -6.979687 L 1.05 -6.979687 L 0 -5.160156 L -1.05 -6.979687 L -3.15 -6.979687 L -2.1 -8.8 L -3.15 -10.620312 L -1.05 -10.620312 L 0 -12.439844 Z M 1.05 -10.620312 " transform="matrix(5,0,0,5,250,150)"/>
<path style="fill-rule:nonzero;fill:rgb(80.784314%,6.666667%,14.901961%);fill-opacity:1;stroke-width:0.36;stroke-linecap:butt;stroke-linejoin:miter;stroke:rgb(11.764706%,70.980392%,22.745098%);stroke-opacity:1;stroke-miterlimit:4;" d="M 1.049687 -10.620313 L 3.149687 -10.620313 L 2.099688 -8.8 L 3.149687 -6.979688 L 1.049687 -6.979688 L -0.0003125 -5.160156 L -1.050312 -6.979688 L -3.150312 -6.979688 L -2.100313 -8.8 L -3.150312 -10.620313 L -1.050312 -10.620313 L -0.0003125 -12.439844 Z M 1.049687 -10.620313 " transform="matrix(5,0,0,5,211.9,216)"/>
<path style="fill-rule:nonzero;fill:rgb(80.784314%,6.666667%,14.901961%);fill-opacity:1;stroke-width:0.36;stroke-linecap:butt;stroke-linejoin:miter;stroke:rgb(11.764706%,70.980392%,22.745098%);stroke-opacity:1;stroke-miterlimit:4;" d="M 1.050312 -10.620313 L 3.150312 -10.620313 L 2.100313 -8.8 L 3.150312 -6.979688 L 1.050312 -6.979688 L 0.0003125 -5.160156 L -1.049688 -6.979688 L -3.149687 -6.979688 L -2.099688 -8.8 L -3.149687 -10.620313 L -1.049688 -10.620313 L 0.0003125 -12.439844 Z M 1.050312 -10.620313 " transform="matrix(5,0,0,5,288.1,216)"/>
</g>
</svg>

<svg xmlns="http://www.w3.org/2000/svg" xmlns:xlink="http://www.w3.org/1999/xlink" width="1000" height="600" viewBox="-50 -30 100 60" fill="#ce1126"><defs><clipPath id="a"><path d="M-50-30H50v60H-50z"/></clipPath></defs><path d="M-50-30H50v60H-50z"/><path fill="#1eb53a" stroke-width="8" stroke="#fff" clip-path="url(#a)" d="M-60-36v72L60-36v72z"/><circle fill="#fff" r="17"/><path stroke="#1eb53a" stroke-width=".36" id="b" d="M1.05-10.62h2.1L2.1-8.8l1.05 1.82h-2.1L0-5.16l-1.05-1.82h-2.1L-2.1-8.8l-1.05-1.82h2.1L0-12.44z"/><use x="-7.62" y="13.2" xlink:href="#b"/><use x="7.62" y="13.2" xlink:href="#b"/></svg>
